X: 18927
T: Indian Point
R: jig
M: 6/8
K: Eminor
B,|E2F G2A|B2A GFE|CEF G2A|BAG BAG
FED A,DD|FEF AGF|EFG BAG|FED E2D||
B,EF G2A|BAG FED|CEF G2A|BAG BAG|
FED A,DD|FEF AGF|EFG BAG|FED E2A||
|:Bef gfe|cef gfe|dfg agf|gfe fed|
Bef gfe|ceg g2a|bag fge|e2 e e2e:|

